X: 33829
T: Reaping The Rye
R: slip jig
M: 9/8
K: Eminor
B3 B2A GFE|GAB B2g f2e|B3 B2A GFE|GAB Bed edc|
B3 B2A GFE|GAB B2g f2e|B3 B2A GFE|GAB Bef edc||
B3 gfe f2e|B3 gfe fed|B3 gfe fga|fge efd edc|
B3 gfe f2e|B3 gfe fga|abg agf gfd|fge efd edc||

